X: 23784
T: Little Hawk
R: jig
M: 6/8
K: Bminor
|:FBc dcB|FBc dcB|dgd BAG|dgd BAG|
FBe dcB|FBe dcB|dfd cAc|1 Bdc B2G:|2 Bdc B2f||
|:bfd BFB|bfd BFB|dfd dcB|cfe fga|
[1 bfd BFB|bfd BFB|dfd cAc|Bdc B2f:|
[2 bfd ~B3|bfd ~B3|dfd cAc|Bdc B2f||
|:bfd bfd|bfd bfd|afd afd|afd afd|
gdB gdB|gdB gdB|fgf fgf|1 fgf fga:|2 fed cBA||

